img/icons/mime/large/rpm.svg

<svg height="145.2" width="144" xmlns="http://www.w3.org/2000/svg" xmlns:xlink="http://www.w3.org/1999/xlink"><linearGradient id="a"><stop offset="0" stop-color="#fbffff" stop-opacity="0"/><stop offset="1" stop-color="#fff"/></linearGradient><linearGradient id="b" gradientTransform="matrix(.79345 0 0 1.071523 -1.413526 -1.740562)" gradientUnits="userSpaceOnUse" x1="78.7" x2="22.4" xlink:href="#a" y1="74.5" y2="11.5"/><linearGradient id="c" gradientTransform="matrix(.67348 0 0 1.262399 -1.413526 -1.740562)" gradientUnits="userSpaceOnUse" x1="157.2" x2="110.2" xlink:href="#a" y1="79.3" y2="16.5"/><linearGradient id="d" gradientTransform="matrix(.696056 0 0 .697625 16.255004 8.305068)" gradientUnits="userSpaceOnUse" x1="41.4" x2="78.8" y1="46.3" y2="85.8"><stop offset="0" stop-color="#fff"/><stop offset="1" stop-color="#fff" stop-opacity="0"/></linearGradient><g stroke-linejoin="round"><path d="m74.5 5.8-68.7 17.4.1 90.8v.2h.3l68.1 25.2 64-26.4v-5.3-84.5z" fill="none" stroke="#000" stroke-opacity=".5" stroke-width="11.5"/><path d="m138.2 23.2v84.5l-61.8-13.5-2-88.4z" fill="#515151" stroke="#000" stroke-linecap="round" stroke-width="6.9"/><path d="m5.7 23.2 68.7-17.4 4.4 91.4-73 17z" fill="#4a494d" stroke="#000" stroke-linecap="round" stroke-width="6.9"/><path d="m74.2 44.3 64-21.1-63.8-17.4-68.7 17.4z" fill="#9db8d2" stroke="#000" stroke-linecap="round" stroke-width="6.9"/><path d="m138.2 23.2v89.8l-64 26.5v-95.2z" fill="#4b6983" stroke="#000" stroke-linecap="round" stroke-width="6.9"/><path d="m74.2 44.3v95.2l-68.4-25.4-.1-90.9z" fill="#7590ae" stroke="#000" stroke-linecap="round" stroke-width="6.9"/></g><path d="m74.1 9.4-64.7 16.5v84.5c67.4 26.5 78.6 43.8 61.4-68.5 61-22.5 3.3-32.5 3.3-32.5z" fill="url(#b)"/><path d="m77.8 47v86.4c.2 0 27.1-10.1 39.5-22.8 12.7-10.4 17-31.4 17-31.4v-51.7z" fill="url(#c)" fill-opacity=".8"/><path d="m74.2 44.3v95.2l-68.4-25.4-.1-90.9z" fill="none" stroke="#000" stroke-linecap="round" stroke-linejoin="round" stroke-width="6.9"/><path d="m81.8 15.2-7.5 10.9-1.9-3.9-2.6 5-8.4-11.7-4 13.4-12.4-6.4 2.4 13.4-4.6-1.6 1.7 5-13.8-2.3 6.7 12.6-13.6 4.4 11.1 7.7-4.2 2.1 4.8 2.4-11.4 8.2 13.4 4-6.5 12.5 13.7-2.5-1.6 4.9 4.2-1.5-2.3 13 13-6.7 4.6 13.9 7.7-11.1 2.1 4.2 2.1-4.3 7.8 11.2 4.2-13.4 12.3 6.5-2.3-14.2 5.3 1.8-1.6-4.7 13.5 2.3-6.5-12.3 13.2-4.1-11.4-8.1 4.7-2.3-4.8-2.4 11.4-8.2-13.4-4 6.5-12.5-13.8 2.5 1.6-4.9-4.6 1.7 2.2-13.5-12.6 6.7zm-10.3 28.1c11.7 0 21.2 9.5 21.2 21.3 0 11.7-9.5 21.2-21.2 21.2-11.8 0-21.3-9.5-21.3-21.2 0-11.8 9.5-21.3 21.3-21.3z" fill="#b39169" stroke="#000" stroke-opacity=".4" stroke-width="2.6"/><path d="m81.8 15.2-7.5 10.9-1.9-3.9-2.6 5-8.4-11.7-4 13.4-12.4-6.4 2.4 13.4-4.6-1.6 1.7 5-13.8-2.3 6.7 12.6-13.6 4.4 11.1 7.7-4.2 2.1 4.8 2.4-11.4 8.2 13.4 4-6.5 12.5 13.7-2.5-1.6 4.9 4.2-1.5-2.3 13 13-6.7 4.6 13.9 7.7-11.1 2.1 4.2 2.1-4.3 7.8 11.2 4.2-13.4 12.3 6.5-2.3-14.2 5.3 1.8-1.6-4.7 13.5 2.3-6.5-12.3 13.2-4.1-11.4-8.1 4.7-2.3-4.8-2.4 11.4-8.2-13.4-4 6.5-12.5-13.8 2.5 1.6-4.9-4.6 1.7 2.2-13.5-12.6 6.7zm-10.3 28.1c11.7 0 21.2 9.5 21.2 21.3 0 11.7-9.5 21.2-21.2 21.2-11.8 0-21.3-9.5-21.3-21.2 0-11.8 9.5-21.3 21.3-21.3z" fill="#b39169" stroke="#000" stroke-width="1.6"/><path d="m80.6 21.2-6.6 9.5-1.7-3.4-2.2 4.4-7.4-10.3-3.6 11.8-10.9-5.6 2.1 11.7-4-1.3 1.5 4.4-12.2-2 5.9 11-11.9 3.9 9.7 6.8-3.7 1.8 4.3 2.1-10.1 7.3 11.8 3.5-5.7 10.9 12.1-2.1-1.4 4.2 3.6-1.3-2 11.5 11.5-5.9 4 12.3 6.7-9.8 1.9 3.7 1.8-3.8 6.9 9.8 3.7-11.8 10.8 5.8-2-12.5 4.7 1.5-1.4-4.1 11.8 2-5.7-10.8 11.6-3.6-10-7.1 4.1-2.1-4.2-2 10.1-7.3-11.8-3.5 5.7-11-12.1 2.2 1.4-4.3-4.1 1.4 1.9-11.8-11 5.9zm-9.1 24.7c10.3 0 18.7 8.3 18.7 18.7 0 10.3-8.4 18.7-18.7 18.7s-18.7-8.4-18.7-18.7c0-10.4 8.4-18.7 18.7-18.7z" fill="url(#d)"/><path d="m48.2 100 11.5-5.9 4 12.3 6.7-9.8 1.9 3.7 1.8-3.8 6.9 9.8 3.7-11.8 10.8 5.8-2-12.5 4.7 1.5-1.4-4.1 11.8 2-5.7-10.8 11.6-3.6-10-7.1 4.1-2.1-4.2-2 10.1-7.3-11.8-3.5 5.7-11zm42-35.4c0 10.3-8.4 18.7-18.7 18.7s18.7-29.1 18.7-18.7z" fill="#fff" fill-opacity=".4"/><rect fill="#fff" height="43.4" rx="7.4" stroke="#000" stroke-width="3.5" width="102.2" x="21.6" y="66.2"/><path d="m90.9 102.9h-6.2v-28.7h9.2l7.5 22.2 7.6-22.2h9.3v28.7h-6.2v-21.4h-.2l-7.4 21.4h-6l-7.5-21.4h-.1zm-28.8-10.3v10.3h-6.2v-28.7h17.2c2.7 0 4.8.8 6.3 2.4 1.6 1.5 2.3 3.8 2.3 6.8s-.7 5.3-2.3 6.9c-1.5 1.5-3.6 2.3-6.3 2.3zm0-13.5v8.6h8.2c1.3 0 2.5-.3 3.3-1 .9-.7 1.3-1.8 1.3-3.3 0-1.4-.4-2.5-1.3-3.2-.8-.7-1.9-1.1-3.3-1.1zm-22.5 12.5h-6.6v11.3h-6.2v-28.7h16.6c2.8 0 4.9.7 6.3 2 1.6 1.5 2.4 3.7 2.4 6.7 0 1.1-.1 2.2-.2 3-.2.9-.6 1.6-1 2.3-.9 1.3-2.2 2.3-4.1 3h-.1l6.2 11.7h-7.3zm-6.6-12.5v8h7.2c1.5 0 2.5-.3 3.2-.8 1-.6 1.4-1.7 1.4-3.2 0-1.4-.4-2.4-1.3-3-.8-.6-1.9-1-3.3-1z"/></svg>

<svg xmlns:svg="http://www.w3.org/2000/svg" xmlns="http://www.w3.org/2000/svg" xmlns:xlink="http://www.w3.org/1999/xlink" height="145.2" width="144" id="svg1" version="1">
<style>
.s0{
  stop-color:#ffffff;
  stop-opacity:1;
}
.s1{
  stop-color:#ff0000;
  stop-opacity:1;
}
.s2{
  stop-color:#ffffff;
  stop-opacity:0;
}

</style>  <metadata id="metadata36"/>
  <defs id="defs3">
    <linearGradient id="linearGradient850">
      <stop id="stop851" offset="0" style="stop-color:#fbffff;stop-opacity:0"/>
      <stop id="stop852" offset="1" class="s0"/>
    </linearGradient>
    <linearGradient gradientUnits="userSpaceOnUse" gradientTransform="matrix(0.79345,0,0,1.071523,-1.4135264,-1.7405624)" y2="11.5" x2="22.4" y1="74.5" x1="78.7" id="linearGradient859" xlink:href="#linearGradient850"/>
    <linearGradient id="linearGradient839">
      <stop id="stop840" offset="0" style="stop-color:#46a046;stop-opacity:1"/>
      <stop id="stop841" offset="0.4" style="stop-color:#df421e;stop-opacity:1"/>
      <stop id="stop842" offset="0.7" style="stop-color:#ada7c8;stop-opacity:1"/>
      <stop id="stop843" offset="1" style="stop-color:#eed680;stop-opacity:1"/>
    </linearGradient>
    <linearGradient id="linearGradient833">
      <stop id="stop834" offset="0" style="stop-color:#00ff00;stop-opacity:1"/>
      <stop id="stop837" offset="0.3" class="s1"/>
      <stop id="stop838" offset="0.8" style="stop-color:#7f8cff;stop-opacity:1"/>
      <stop id="stop835" offset="1" style="stop-color:#ffff00;stop-opacity:1"/>
    </linearGradient>
    <linearGradient gradientUnits="userSpaceOnUse" gradientTransform="matrix(0.67348,0,0,1.262399,-1.4135264,-1.7405624)" y2="16.5" x2="110.2" y1="79.3" x1="157.2" id="linearGradient836" xlink:href="#linearGradient850"/>
    <linearGradient y2="0" x2="0" y1="0.7" x1="0.6" id="linearGradient855" xlink:href="#linearGradient850"/>
    <linearGradient y2="0.3" x2="0.7" y1="0.9" x1="0.4" id="linearGradient853" xlink:href="#linearGradient850"/>
    <linearGradient xlink:href="#linearGradient2830" id="linearGradient2840" gradientTransform="scale(0.998875,1.001127)" x1="41.4" y1="46.3" x2="78.8" y2="85.8" gradientUnits="userSpaceOnUse"/>
    <linearGradient xlink:href="#linearGradient2851" id="linearGradient2857" gradientTransform="scale(0.998853,1.001148)" x1="44.2" y1="51.4" x2="79.2" y2="86.6" gradientUnits="userSpaceOnUse"/>
    <linearGradient xlink:href="#linearGradient870" id="linearGradient1370" x1="0.4" y1="0.5" x2="0.6" y2="0.6" spreadMethod="reflect"/>
    <linearGradient id="linearGradient832">
      <stop offset="0" id="stop833" class="s0"/>
      <stop offset="0.5" id="stop1366" style="stop-color:#00b8df;stop-opacity:1"/>
      <stop offset="1" id="stop1368" style="stop-color:#0058a9;stop-opacity:1"/>
    </linearGradient>
    <linearGradient id="linearGradient870">
      <stop offset="0" id="stop871" class="s0"/>
      <stop offset="0.5" id="stop875" style="stop-color:#ff7f7f;stop-opacity:1"/>
      <stop offset="1" id="stop873" class="s1"/>
    </linearGradient>
    <linearGradient id="linearGradient2851">
      <stop offset="0" id="stop2853" class="s0"/>
      <stop offset="1" id="stop2855" class="s2"/>
    </linearGradient>
    <linearGradient id="linearGradient2830">
      <stop offset="0" id="stop2832" class="s0"/>
      <stop offset="1" id="stop2834" class="s2"/>
    </linearGradient>
    <linearGradient y2="85.8" x2="78.8" y1="46.3" x1="41.4" gradientTransform="matrix(0.696056,0,0,0.697625,16.255004,8.3050676)" gradientUnits="userSpaceOnUse" id="linearGradient1382" xlink:href="#linearGradient2830"/>
  </defs>
  <path id="path874" d="M74.5 5.8L5.8 23.2 5.9 114 5.9 114 5.9 114.2 6.2 114.2 74.3 139.4 138.3 113 138.3 107.7 138.3 23.2 74.5 5.8z" style="fill:none;font-family:Trek;font-size:40;stroke-linejoin:round;stroke-opacity:0.5;stroke-width:11.5;stroke:#000"/>
  <path id="path633" d="M138.2 23.2L138.2 107.7 76.4 94.2 74.4 5.8 138.2 23.2z" style="fill:#515151;font-size:12;stroke-linecap:round;stroke-linejoin:round;stroke-width:6.9;stroke:#000"/>
  <path id="path631" d="M5.7 23.2L74.4 5.8 78.8 97.2 5.8 114.2 5.7 23.2z" style="fill:#4a494d;font-size:12;stroke-linecap:round;stroke-linejoin:round;stroke-width:6.9;stroke:#000"/>
  <path id="path640" d="M74.2 44.3L138.2 23.2 74.4 5.8 5.7 23.2 74.2 44.3z" style="fill:#9db8d2;font-size:12;stroke-linecap:round;stroke-linejoin:round;stroke-width:6.9;stroke:#000"/>
  <path id="path627" d="M138.2 23.2L138.2 113 74.2 139.5 74.2 44.3 138.2 23.2z" style="fill:#4b6983;font-size:12;stroke-linecap:round;stroke-linejoin:round;stroke-width:6.9;stroke:#000"/>
  <path id="path629" d="M74.2 44.3L74.2 139.5 5.8 114.1 5.7 23.2 74.2 44.3z" style="fill:#7590ae;font-size:12;stroke-linecap:round;stroke-linejoin:round;stroke-width:6.9;stroke:#000"/>
  <path id="path892" d="M74.1 9.4L9.4 25.9 9.4 110.4C76.8 136.9 88 154.2 70.8 41.9 131.8 19.4 74.1 9.4 74.1 9.4z" fill="url(#linearGradient859)"/>
  <path id="path849" d="M77.8 47L77.8 133.4C78 133.4 104.9 123.3 117.3 110.6 130 100.2 134.3 79.2 134.3 79.2L134.3 27.5 77.8 47z" style="fill-opacity:0.8;fill:url(#linearGradient836)"/>
  <path id="path852" d="M74.2 44.3L74.2 139.5 5.8 114.1 5.7 23.2 74.2 44.3z" style="fill:none;font-size:12;stroke-linecap:round;stroke-linejoin:round;stroke-width:6.9;stroke:#000"/>
  <path d="M81.8 15.2L74.3 26.1 72.4 22.2 69.8 27.2 61.4 15.5 57.4 28.9 45 22.5 47.4 35.9 42.8 34.3 44.5 39.3 30.7 37 37.4 49.6 23.8 54 34.9 61.7 30.7 63.8 35.5 66.2 24.1 74.4 37.5 78.4 31 90.9 44.7 88.4 43.1 93.3 47.3 91.8 45 104.8 58 98.1 62.6 112 70.3 100.9 72.4 105.1 74.5 100.8 82.3 112 86.5 98.6 98.8 105.1 96.5 90.9 101.8 92.7 100.2 88 113.7 90.3 107.2 78 120.4 73.9 109 65.8 113.7 63.5 108.9 61.1 120.3 52.9 106.9 48.9 113.4 36.4 99.6 38.9 101.2 34 96.6 35.7 98.8 22.2 86.2 28.9 81.8 15.2zM71.5 43.3C83.2 43.3 92.7 52.8 92.7 64.6 92.7 76.3 83.2 85.8 71.5 85.8 59.7 85.8 50.2 76.3 50.2 64.6 50.2 52.8 59.7 43.3 71.5 43.3z" id="path1306" style="fill:#b39169;stroke-opacity:0.4;stroke-width:2.6;stroke:#000"/>
  <path d="M81.8 15.2L74.3 26.1 72.4 22.2 69.8 27.2 61.4 15.5 57.4 28.9 45 22.5 47.4 35.9 42.8 34.3 44.5 39.3 30.7 37 37.4 49.6 23.8 54 34.9 61.7 30.7 63.8 35.5 66.2 24.1 74.4 37.5 78.4 31 90.9 44.7 88.4 43.1 93.3 47.3 91.8 45 104.8 58 98.1 62.6 112 70.3 100.9 72.4 105.1 74.5 100.8 82.3 112 86.5 98.6 98.8 105.1 96.5 90.9 101.8 92.7 100.2 88 113.7 90.3 107.2 78 120.4 73.9 109 65.8 113.7 63.5 108.9 61.1 120.3 52.9 106.9 48.9 113.4 36.4 99.6 38.9 101.2 34 96.6 35.7 98.8 22.2 86.2 28.9 81.8 15.2zM71.5 43.3C83.2 43.3 92.7 52.8 92.7 64.6 92.7 76.3 83.2 85.8 71.5 85.8 59.7 85.8 50.2 76.3 50.2 64.6 50.2 52.8 59.7 43.3 71.5 43.3z" id="path1308" style="fill:#b39169;stroke-width:1.6;stroke:#000"/>
  <path d="M80.6 21.2L74 30.7 72.3 27.3 70.1 31.7 62.7 21.4 59.1 33.2 48.2 27.6 50.3 39.3 46.3 38 47.8 42.4 35.6 40.4 41.5 51.4 29.6 55.3 39.3 62.1 35.6 63.9 39.9 66 29.8 73.3 41.6 76.8 35.9 87.7 48 85.6 46.6 89.8 50.2 88.5 48.2 100 59.7 94.1 63.7 106.4 70.4 96.6 72.3 100.3 74.1 96.5 81 106.3 84.7 94.5 95.5 100.3 93.5 87.8 98.2 89.3 96.8 85.2 108.6 87.2 102.9 76.4 114.5 72.8 104.5 65.7 108.6 63.6 104.4 61.6 114.5 54.3 102.7 50.8 108.4 39.8 96.3 42 97.7 37.7 93.6 39.1 95.5 27.3 84.5 33.2 80.6 21.2zM71.5 45.9C81.8 45.9 90.2 54.2 90.2 64.6 90.2 74.9 81.8 83.3 71.5 83.3 61.2 83.3 52.8 74.9 52.8 64.6 52.8 54.2 61.2 45.9 71.5 45.9z" id="path2070" fill="url(#linearGradient1382)"/>
  <path d="M48.2 100L59.7 94.1 63.7 106.4 70.4 96.6 72.3 100.3 74.1 96.5 81 106.3 84.7 94.5 95.5 100.3 93.5 87.8 98.2 89.3 96.8 85.2 108.6 87.2 102.9 76.4 114.5 72.8 104.5 65.7 108.6 63.6 104.4 61.6 114.5 54.3 102.7 50.8 108.4 39.8 48.2 100zM90.2 64.6C90.2 74.9 81.8 83.3 71.5 83.3 61.2 83.3 90.2 54.2 90.2 64.6z" id="path2842" style="fill-opacity:0.4;fill:#fff"/>
  <rect rx="7.4" y="66.2" x="21.6" ry="7.4" height="43.4" width="102.2" id="rect853" style="fill:#fff;stroke-width:3.5;stroke:#000"/>
  <path id="path905" d="M90.9 102.9L84.7 102.9 84.7 74.2 93.9 74.2 101.4 96.4 109 74.2 118.3 74.2 118.3 102.9 112.1 102.9 112.1 81.5 111.9 81.5 104.5 102.9 98.5 102.9 91 81.5 90.9 81.5 90.9 102.9zM62.1 92.6L62.1 102.9 55.9 102.9 55.9 74.2 73.1 74.2C75.8 74.2 77.9 75 79.4 76.6 81 78.1 81.7 80.4 81.7 83.4 81.7 86.4 81 88.7 79.4 90.3 77.9 91.8 75.8 92.6 73.1 92.6L62.1 92.6zM62.1 79.1L62.1 87.7 70.3 87.7C71.6 87.7 72.8 87.4 73.6 86.7 74.5 86 74.9 84.9 74.9 83.4 74.9 82 74.5 80.9 73.6 80.2 72.8 79.5 71.7 79.1 70.3 79.1L62.1 79.1zM39.6 91.6L33 91.6 33 102.9 26.8 102.9 26.8 74.2 43.4 74.2C46.2 74.2 48.3 74.9 49.7 76.2 51.3 77.7 52.1 79.9 52.1 82.9 52.1 84 52 85.1 51.9 85.9 51.7 86.8 51.3 87.5 50.9 88.2 50 89.5 48.7 90.5 46.8 91.2L46.7 91.2 52.9 102.9 45.6 102.9 39.6 91.6zM33 79.1L33 87.1 40.2 87.1C41.7 87.1 42.7 86.8 43.4 86.3 44.4 85.7 44.8 84.6 44.8 83.1 44.8 81.7 44.4 80.7 43.5 80.1 42.7 79.5 41.6 79.1 40.2 79.1L33 79.1z" style="font-family:Trek;font-size:40;stroke-width:1"/>
</svg>
